symbols/web/party_mode/materialsymbolsoutlined/party_mode_wght700_48px.svg

<svg xmlns="http://www.w3.org/2000/svg" height="48" width="48"><path d="M24 34.7q3.6 0 6.05-2.525Q32.5 29.65 32.5 26q0-.25-.025-.4-.025-.15-.125-.4H28.8q-.05.25.05.4.1.15.1.4 0 1.95-1.5 3.55-1.5 1.6-3.45 1.6h-6.8q.85 1.45 2.625 2.5T24 34.7Zm-8.5-7.5h3.3q.05-.25.15-.6.1-.35.1-.6 0-1.95 1.5-3.35 1.5-1.4 3.45-1.4h6.9q-1.05-1.45-2.775-2.5Q26.4 17.7 24 17.7q-3.65 0-6.075 2.35Q15.5 22.4 15.5 26q0 .25.025.6t-.025.6ZM7.45 43.25q-1.95 0-3.325-1.375Q2.75 40.5 2.75 38.55V13.8q0-1.9 1.375-3.325Q5.5 9.05 7.45 9.05h6.6l4.2-4.9H29.8l4.15 4.9h6.6q1.9 0 3.325 1.425Q45.3 11.9 45.3 13.8v24.75q0 1.95-1.425 3.325-1.425 1.375-3.325 1.375Zm33.1-4.7V13.8H31.8l-4.15-4.9H20.4l-4.2 4.9H7.45v24.75ZM24 23.7Z"/></svg>

<svg xmlns="http://www.w3.org/2000/svg" height="48" width="48"><path d="M24 34.7Q27.6 34.7 30.05 32.175Q32.5 29.65 32.5 26Q32.5 25.75 32.475 25.6Q32.45 25.45 32.35 25.2H28.8Q28.75 25.45 28.85 25.6Q28.95 25.75 28.95 26Q28.95 27.95 27.45 29.55Q25.95 31.15 24 31.15H17.2Q18.05 32.6 19.825 33.65Q21.6 34.7 24 34.7ZM15.5 27.2H18.8Q18.85 26.95 18.95 26.6Q19.05 26.25 19.05 26Q19.05 24.05 20.55 22.65Q22.05 21.25 24 21.25H30.9Q29.85 19.8 28.125 18.75Q26.4 17.7 24 17.7Q20.35 17.7 17.925 20.05Q15.5 22.4 15.5 26Q15.5 26.25 15.525 26.6Q15.55 26.95 15.5 27.2ZM7.45 43.25Q5.5 43.25 4.125 41.875Q2.75 40.5 2.75 38.55V13.8Q2.75 11.9 4.125 10.475Q5.5 9.05 7.45 9.05H14.05L18.25 4.15H29.8L33.95 9.05H40.55Q42.45 9.05 43.875 10.475Q45.3 11.9 45.3 13.8V38.55Q45.3 40.5 43.875 41.875Q42.45 43.25 40.55 43.25ZM40.55 38.55Q40.55 38.55 40.55 38.55Q40.55 38.55 40.55 38.55V13.8Q40.55 13.8 40.55 13.8Q40.55 13.8 40.55 13.8H31.8L27.65 8.9H20.4L16.2 13.8H7.45Q7.45 13.8 7.45 13.8Q7.45 13.8 7.45 13.8V38.55Q7.45 38.55 7.45 38.55Q7.45 38.55 7.45 38.55ZM24 23.7Q24 23.7 24 23.7Q24 23.7 24 23.7Q24 23.7 24 23.7Q24 23.7 24 23.7Q24 23.7 24 23.7Q24 23.7 24 23.7Q24 23.7 24 23.7Q24 23.7 24 23.7Z"/></svg>
